!!!COM: Fe/licien David
!!!CNT: Francais
!!!TXO: Francais
!!!OTL: Adieux a\ Charence
!!!LYR: Mme. E.T. ("Presumably Emma Torneux de Voves") 
!!!ENC: Jacob Pegg
!!!YOR: Romantic French Song 1830-1870, David Tunley, ed., New York: Garland Publishing, Inc., 1995
!!!ODT: 1843/
!!NB: Vocal melody and text only encoded.
!!NB: First strophe only encoded. 
**kern	**silbe
*clef G2	*
*k[b-e-]	*
*M3/8	*
=3	=3
{8dd	{Au
8dd	pay-
8dd	-ys
=4	=4
(8dd	des
8cc)	|
8dd	mon-
=5	=5
(4dd	-ta-
8b-)	|
=6	=6
4g	-gnes
8r	.
=7	=7
8g	J'ai
8a	bien
8b-	pleu-
=8	=8
4cc	-re/
(16g	le
16a)	|
=9	=9
4b-}	soir}
8r	.
=10	=10
4.r	.
!!sub 4.r for 1r for proofing
=11	=11
{8dd	Car
8dd	j'e/-
8dd	-tais
=12	=12
(8dd	sans
8cc)	|
8ff	com-
=13	=13
(4ff	-pa-
8dd)	|
=14	=14
4b-	-gne,
8r	.
=15	=15
8b-	Et
8cc	n'a-
8dd	-vais
=16	=16
4gg	plus
(16dd	d'es-
16e-)	|
=17	=17
4.ff	-poir
=18	=18
[4.b-	Et
=19	=19
8b-]	|
8b-	n'a-
8cc	-vait
=20	=20
4dd	plus
(16b-	d'es-
16a)	|
=21	=21
4.g}	poir.}
*-	*-
